icons/light/cs.svg

<svg width="16" height="16" viewBox="0 0 16 16" fill="none" xmlns="http://www.w3.org/2000/svg">
<path d="M7.66667 10.6467L7.94 12.2733C7.76667 12.3667 7.48667 12.4533 7.11334 12.5333C6.73334 12.62 6.28667 12.6667 5.77334 12.6667C4.3 12.64 3.19334 12.2 2.45334 11.36C1.70667 10.5133 1.33334 9.44 1.33334 8.14C1.36667 6.6 1.81334 5.42 2.66667 4.59333C3.54667 3.76 4.64 3.33333 5.96 3.33333C6.46 3.33333 6.89334 3.38 7.25334 3.46C7.61334 3.54 7.88 3.62667 8.05334 3.72667L7.66667 5.38667L6.96 5.16C6.69334 5.09333 6.38667 5.06 6.03334 5.06C5.26 5.05333 4.62 5.3 4.12 5.79333C3.61334 6.28 3.35334 7.02667 3.33334 8.02C3.33334 8.92667 3.58 9.63333 4.05334 10.1533C4.52667 10.6667 5.19334 10.9333 6.04667 10.94L6.93334 10.86C7.22 10.8067 7.46 10.7333 7.66667 10.6467ZM9.26 12.6667L9.66667 10H8.66667L8.89334 8.66667H9.89334L10.1067 7.33333H9.10667L9.33334 6H10.3333L10.74 3.33333H12.0733L11.6667 6H12.3333L12.74 3.33333H14.0733L13.6667 6H14.6667L14.44 7.33333H13.44L13.2267 8.66667H14.2267L14 10H13L12.5933 12.6667H11.26L11.6667 10H11L10.5933 12.6667H9.26ZM11.2267 8.66667H11.8933L12.1067 7.33333H11.44L11.2267 8.66667Z" fill="#424242"/>
</svg>

<svg xmlns="http://www.w3.org/2000/svg" width="16" height="16" fill="none" xmlns:v="https://vecta.io/nano"><path d="M7.667 10.647l.273 1.627c-.173.093-.453.18-.827.26-.38.087-.827.133-1.34.133-1.473-.027-2.58-.467-3.32-1.307-.747-.847-1.12-1.92-1.12-3.22.033-1.54.48-2.72 1.333-3.547.88-.833 1.973-1.26 3.293-1.26.5 0 .933.047 1.293.127s.627.167.8.267l-.387 1.66-.707-.227a3.83 3.83 0 0 0-.927-.1c-.773-.007-1.413.24-1.913.733-.507.487-.767 1.233-.787 2.227 0 .907.247 1.613.72 2.133.473.513 1.14.78 1.993.787l.887-.08c.287-.053.527-.127.733-.213zm1.593 2.02L9.667 10h-1l.227-1.333h1l.213-1.333h-1L9.333 6h1l.407-2.667h1.333L11.667 6h.667l.407-2.667h1.333L13.667 6h1l-.227 1.333h-1l-.213 1.333h1L14 10h-1l-.407 2.667H11.26L11.667 10H11l-.407 2.667H9.26zm1.967-4h.667l.213-1.333h-.667l-.213 1.333z" fill="#424242"/></svg>
